X:165
%%pagewidth 8in
%%vocalfont Baskerville10Pro 13
T:The hemp-dresser, or The London gentlewoman.
M:6/8
L:1/8
K:G
%%score 1 2
V:1 clef-treble
V:2 clef-bass octave=-1
V:1
G|G2d (d>e)d&x3B3|c2B (AB)c&E3F3|[Gd]2G G2A&x3E3|[DB]3d2G|
w:The sun had loos'd* his wea-ry team,* And turn'd his steeds a graz-ing, Ten
V:2
z|[GB]3G,3|C3D3|B,3C3|G,3G,2z|
V:1
G2d (d>e)d&D6|c2B (AB)c&E3C3|d2G [B,G]2[FA]|[GB]3d2||d|
w:fa-thom deep* in Nep-tune's stream* His The-tis was em-bra-cing; The
V:2
[GB]3[=FA]3|[E^G]3A3|[D^GB]3D3|G,3-G,2||z|
V:1
B2A (GA)B&D3D3|[FA]2F D2D|D2G G2A&x3E3|[DB]3D2D|
w:stars tripp'd in* the fir-ma-ment, Like milk-maids on a May-day, Or
V:2
G,3B,3|D6|B,3C3|G,3-G,2z|
V:1
B2A GAB&[DF]3B,3|[DA]2F D2D|[B,D]2G [B,G]2[FA]|[GB]3d2||
w:coun-try lass-es a mum-ming sent, Or school-boys on a play-day.
V:2
D3E3|G6|A3D3|G,3-G,2||

